X: 7897
T:Swedish Mazurka (different version)
R:Mazurka
O:Sweden
A:J\"amtland
M:3/4
K:D
AB AG FE| DF Ad f2| fa ag ec|1 df ed cB :|2 d2 d4 :|
|:Ad dc cB| BA a2 A2| Bc d2 cB| BA Ad F2| \
  GA B2 AG| FA df fa| a2 ge ce | d2 d4 :|
